icons-dark/actions/16/games-config-board.svg

<svg xmlns="http://www.w3.org/2000/svg" viewBox="0 0 16 16">
  <defs id="defs3051">
    <style type="text/css" id="current-color-scheme">
      .ColorScheme-Text {
        color:#f2f2f2;
      }
      </style>
  </defs>
 <path style="fill:currentColor;fill-opacity:1;stroke:none" 
     d="m2 2v13h13v-13h-12zm1 1h2v2h-2zm3 0h2v2h-2zm3 0h2v2h-2zm3 0h2v2h-2zm-9 3h2v2h-2zm3 0h2v2h-2zm3 0h2v2h-2zm3 0h2v2h-2zm-9 3h2v2h-2zm3 0h2v2h-2zm3 0h2v2h-2zm3 0h2v2h-2zm-9 3h2v2h-2zm3 0h2v2h-2zm3 0h2v2h-2zm3 0h2v2h-2z"
     class="ColorScheme-Text"
     />
</svg>

<?xml version="1.0" encoding="UTF-8" standalone="no"?>
<!-- Created with Inkscape (http://www.inkscape.org/) -->

<svg
   xmlns:dc="http://purl.org/dc/elements/1.1/"
   xmlns:cc="http://creativecommons.org/ns#"
   xmlns:rdf="http://www.w3.org/1999/02/22-rdf-syntax-ns#"
   xmlns:svg="http://www.w3.org/2000/svg"
   xmlns="http://www.w3.org/2000/svg"
   xmlns:sodipodi="http://sodipodi.sourceforge.net/DTD/sodipodi-0.dtd"
   xmlns:inkscape="http://www.inkscape.org/namespaces/inkscape"
   width="16"
   height="16"
   id="svg3049"
   version="1.1"
   inkscape:version="0.91 r13725"
   sodipodi:docname="games-config-board.svg"
   inkscape:export-filename="/home/uri/.kde/share/icons/NITRUX-KDE/16x16/actions/view-right-new.png"
   inkscape:export-xdpi="30"
   inkscape:export-ydpi="30">
  <defs
     id="defs3051" />
  <sodipodi:namedview
     id="base"
     pagecolor="#ffffff"
     bordercolor="#666666"
     borderopacity="1.0"
     inkscape:pageopacity="0.0"
     inkscape:pageshadow="2"
     inkscape:zoom="45.254834"
     inkscape:cx="4.8162144"
     inkscape:cy="6.0845956"
     inkscape:document-units="px"
     inkscape:current-layer="layer1-0"
     showgrid="true"
     fit-margin-top="0"
     fit-margin-left="0"
     fit-margin-right="0"
     fit-margin-bottom="0"
     inkscape:window-width="1725"
     inkscape:window-height="1007"
     inkscape:window-x="187"
     inkscape:window-y="0"
     inkscape:window-maximized="0"
     inkscape:showpageshadow="false"
     borderlayer="true"
     inkscape:snap-bbox="true"
     inkscape:snap-global="true"
     inkscape:object-nodes="true">
    <inkscape:grid
       type="xygrid"
       id="grid4085" />
    <sodipodi:guide
       position="2.0000044,14.00003"
       orientation="12,0"
       id="guide4075" />
    <sodipodi:guide
       position="2.0000044,2.0000296"
       orientation="0,12"
       id="guide4077" />
    <sodipodi:guide
       position="14,9"
       orientation="-12,0"
       id="guide4079" />
    <sodipodi:guide
       position="14,14"
       orientation="0,-12"
       id="guide4081" />
  </sodipodi:namedview>
  <metadata
     id="metadata3054">
    <rdf:RDF>
      <cc:Work
         rdf:about="">
        <dc:format>image/svg+xml</dc:format>
        <dc:type
           rdf:resource="http://purl.org/dc/dcmitype/StillImage" />
        <dc:title></dc:title>
      </cc:Work>
    </rdf:RDF>
  </metadata>
  <g
     inkscape:label="Capa 1"
     inkscape:groupmode="layer"
     id="layer1"
     transform="translate(-421.71429,-531.79074)">
    <g
       transform="matrix(0.75,0,0,0.74999813,421.46429,-241.22897)"
       id="layer1-0"
       inkscape:label="Capa 1">
      <path
         style="opacity:1;fill:#f2f2f2;fill-opacity:1;stroke:none;stroke-width:2;stroke-linecap:round;stroke-miterlimit:4;stroke-dasharray:none;stroke-opacity:1"
         d="M 2 2 L 2 15 L 3 15 L 11 15 L 12 15 L 14 15 L 15 15 L 15 2 L 14 2 L 12 2 L 11 2 L 3 2 L 2 2 z M 3 3 L 5 3 L 5 5 L 3 5 L 3 3 z M 6 3 L 8 3 L 8 5 L 6 5 L 6 3 z M 9 3 L 11 3 L 11 5 L 9 5 L 9 3 z M 12 3 L 14 3 L 14 5 L 12 5 L 12 3 z M 3 6 L 5 6 L 5 8 L 3 8 L 3 6 z M 6 6 L 8 6 L 8 8 L 6 8 L 6 6 z M 9 6 L 11 6 L 11 8 L 9 8 L 9 6 z M 12 6 L 14 6 L 14 8 L 12 8 L 12 6 z M 3 9 L 5 9 L 5 11 L 3 11 L 3 9 z M 6 9 L 8 9 L 8 11 L 6 11 L 6 9 z M 9 9 L 11 9 L 11 11 L 9 11 L 9 9 z M 12 9 L 14 9 L 14 11 L 12 11 L 12 9 z M 3 12 L 5 12 L 5 14 L 3 14 L 3 12 z M 6 12 L 8 12 L 8 14 L 6 14 L 6 12 z M 9 12 L 11 12 L 11 14 L 9 14 L 9 12 z M 12 12 L 14 12 L 14 14 L 12 14 L 12 12 z "
         transform="matrix(1.3333333,0,0,1.3333367,0.33333333,1030.6955)"
         id="rect4140" />
    </g>
  </g>
</svg>
